images/haber_process.svg

<svg viewBox="0 0 1605 189.8" aria-hidden="true" xmlns:xlink="http://www.w3.org/1999/xlink" xmlns="http://www.w3.org/2000/svg"><defs><path id="a" d="M42 46q32 2 52 10t24 13 10 17v548h-4q-10 3-72 3H25v46h207l3-3q2-1 87-126t171-251l85-125v420q-6 10-10 15t-24 14-52 10h-17v46h8q15-3 117-3 106 0 115 3h9v-46h-17q-73-4-85-39l-1-296V6l-7-6h-14q-15 0-18 3T481 150 282 443 171 605V345l1-259q11-36 85-40h17V0h-9q-15 3-115 3Q48 3 33 0h-8v46z"/><path id="b" d="M109 429q-27 0-43 18t-16 44q0 71 53 123t132 52q91 0 152-56t62-145q0-43-20-82t-48-68-80-74q-36-31-100-92l-59-56 76-1q157 0 167 5 7 2 24 89v3h40v-3q-1-3-13-91T421 3V0H50v31q0 7 6 15t30 35q29 32 50 56 9 10 34 37t34 37 29 33 28 34 23 30 21 32 15 29 13 32 7 30 3 33q0 63-34 109t-97 46q-33 0-58-17t-35-33-10-19q0-1 5-1 18 0 37-14t19-46q0-25-16-42t-45-18"/><path id="c" d="M56 237v13q0 13 14 20h299v150l1 150q10 13 19 13 13 0 20-15V270h298q15-8 15-20t-15-20H409V-68q-8-14-18-14h-4q-12 0-18 14v298H70q-14 7-14 20z"/><path id="d" d="M127 463q-27 0-42 17t-16 44q0 55 48 98t116 43q35 0 44-1 74-12 113-53t40-89q0-52-34-101t-94-71l-3-2q0-1 9-3t29-9 38-21q82-53 82-140 0-79-62-138T238-22q-80 0-138 43T42 130q0 28 18 45t45 18q28 0 46-18t18-45q0-11-3-20t-7-16-11-12-12-8-10-4-8-3l-4-1q51-45 124-45 55 0 83 53 17 33 17 101v20q0 95-64 127-15 6-61 7l-42 1-3 2q-2 3-2 16 0 18 8 18 28 0 58 5 34 5 62 42t28 112v8q0 57-35 79-22 14-47 14-32 0-59-11t-38-23l-11-12h3q3-1 8-2t10-5 12-7 10-11 8-15 3-20q0-22-14-39t-45-18"/><path id="e" d="M128 622q-7 7-11 9t-16 3-43 3H25v46h11q21-3 144-3 135 0 144 3h11v-46h-33q-40-1-51-3t-18-12l-1-122V378h285v244q-7 7-11 9t-16 3-43 3h-33v46h11q21-3 144-3 135 0 144 3h11v-46h-33q-40-1-51-3t-18-12V61q6-10 17-12t52-3h33V0h-11q-21 3-144 3-135 0-144-3h-11v46h33q42 1 51 3t19 12v271H232V197l1-136q6-10 17-12t52-3h33V0h-11q-21 3-144 3Q45 3 36 0H25v46h33q42 1 51 3t19 12z"/><path id="f" d="M55 256q1 8 7 14h867q15-9 15-20t-15-20H148l17-15q16-14 31-30t35-40 39-58 33-71q6-17 3-21-2-6-18-6-9 0-12 1t-7 6-5 14-11 26-22 39q-59 98-162 160-10 7-12 10t-2 11"/><path id="g" d="M84 237v13q0 13 14 20h581q15-8 15-20t-15-20H98q-14 7-14 20z"/><path id="h" d="M691 500q0 11 20 11 9 0 12-1t7-6 5-14 11-26 22-39q28-47 67-86t62-54 36-22q8-5 9-7t2-11-7-15H70q-14 7-14 20t14 20h782q-50 38-90 94t-55 91-16 45"/></defs><path fill="#fff" stroke-width="18.5" d="M1.3.1h1601.5v189.3H1.3z"/><g stroke="currentColor" fill="currentColor" stroke-width="0"><g data-mml-node="math"><g data-mml-node="TeXAtom" data-mjx-texclass="ORD"><g data-mml-node="TeXAtom" data-mjx-texclass="ORD"><g data-mml-node="mi" transform="matrix(.18028 0 0 -.18788 7.6 147.6)"><use data-c="4E" xlink:href="#a"/></g></g><g data-mml-node="msub"><g data-mml-node="TeXAtom" data-mjx-texclass="ORD"><g data-mml-node="TeXAtom" data-mjx-texclass="ORD"><g data-mml-node="mpadded"><g data-mml-node="mn" transform="matrix(.12746 0 0 -.13283 148.8 175.8)"><use data-c="32" xlink:href="#b"/></g></g></g></g></g><g data-mml-node="mo" transform="matrix(.18028 0 0 -.18788 261.6 147.6)"><use data-c="2B" xlink:href="#c"/></g><g data-mml-node="mn" transform="matrix(.18028 0 0 -.18788 441.9 147.6)"><use data-c="33" xlink:href="#d"/></g><g data-mml-node="TeXAtom" data-mjx-texclass="ORD"><g data-mml-node="mi" transform="matrix(.18028 0 0 -.18788 562.1 147.6)"><use data-c="48" xlink:href="#e"/></g></g><g data-mml-node="msub"><g data-mml-node="TeXAtom" data-mjx-texclass="ORD"><g data-mml-node="TeXAtom" data-mjx-texclass="ORD"><g data-mml-node="mpadded"><g data-mml-node="mn" transform="matrix(.12746 0 0 -.13283 703.3 175.8)"><use data-c="32" xlink:href="#b"/></g></g></g></g></g><g data-mml-node="TeXAtom" data-mjx-texclass="REL"><g data-mml-node="TeXAtom" data-mjx-texclass="REL"><g data-mml-node="mover"><g data-mml-node="TeXAtom" data-mjx-texclass="OP"><g data-mml-node="TeXAtom" data-mjx-texclass="ORD"><g data-mml-node="mpadded"><g data-mml-node="TeXAtom" data-mjx-texclass="ORD"><g data-mml-node="mo" transform="matrix(.18028 0 0 -.18788 826.1 147.6)"><use data-c="21BD" xlink:href="#f"/></g></g><g data-mml-node="TeXAtom" data-mjx-texclass="ORD"><g data-mml-node="mo" transform="matrix(.18028 0 0 -.18788 946.2 147.6)"><use data-c="2212" xlink:href="#g"/></g></g></g></g></g><g data-mml-node="TeXAtom" data-mjx-texclass="ORD"><g data-mml-node="mstyle"><g data-mml-node="TeXAtom" data-mjx-texclass="ORD"><g data-mml-node="mo" transform="matrix(.18023 0 0 -.18782 826.1 110)"><use data-c="2212" xlink:href="#g"/></g></g><g data-mml-node="TeXAtom" data-mjx-texclass="ORD"><g data-mml-node="mo" transform="matrix(.18023 0 0 -.18782 906.1 110)"><use data-c="21C0" xlink:href="#h"/></g></g></g></g></g></g></g><g data-mml-node="mn" transform="matrix(.18028 0 0 -.18788 1136.5 147.6)"><use data-c="32" xlink:href="#b"/></g><g data-mml-node="TeXAtom" data-mjx-texclass="ORD"><g data-mml-node="mi" transform="matrix(.18028 0 0 -.18788 1256.8 147.6)"><use data-c="4E" xlink:href="#a"/><use data-c="48" xlink:href="#e" transform="translate(750)"/></g></g><g data-mml-node="msub"><g data-mml-node="TeXAtom" data-mjx-texclass="ORD"><g data-mml-node="TeXAtom" data-mjx-texclass="ORD"><g data-mml-node="mpadded"><g data-mml-node="mn" transform="matrix(.12746 0 0 -.13283 1533.1 175.8)"><use data-c="33" xlink:href="#d"/></g></g></g></g></g></g></g></g></svg>

<?xml version="1.0" encoding="UTF-8" standalone="no"?>
<svg
   width="160.464px"
   height="18.976px"
   viewBox="0 -883 8865.7 1048.6"
   aria-hidden="true"
   style=""
   version="1.1"
   id="svg71"
   sodipodi:docname="ammonia.svg"
   inkscape:version="1.3.2 (091e20e, 2023-11-25)"
   xmlns:inkscape="http://www.inkscape.org/namespaces/inkscape"
   xmlns:sodipodi="http://sodipodi.sourceforge.net/DTD/sodipodi-0.dtd"
   xmlns:xlink="http://www.w3.org/1999/xlink"
   xmlns="http://www.w3.org/2000/svg"
   xmlns:svg="http://www.w3.org/2000/svg">
  <sodipodi:namedview
     id="namedview71"
     pagecolor="#ffffff"
     bordercolor="#000000"
     borderopacity="0.25"
     inkscape:showpageshadow="2"
     inkscape:pageopacity="0.0"
     inkscape:pagecheckerboard="0"
     inkscape:deskcolor="#d1d1d1"
     showgrid="false"
     inkscape:zoom="5.2161231"
     inkscape:cx="80.327859"
     inkscape:cy="9.4898067"
     inkscape:window-width="1288"
     inkscape:window-height="770"
     inkscape:window-x="0"
     inkscape:window-y="25"
     inkscape:window-maximized="0"
     inkscape:current-layer="svg71" />
  <defs
     id="defs1">
    <path
       id="MJX-52-TEX-N-4E"
       d="M42 46Q74 48 94 56T118 69T128 86V634H124Q114 637 52 637H25V683H232L235 680Q237 679 322 554T493 303L578 178V598Q572 608 568 613T544 627T492 637H475V683H483Q498 680 600 680Q706 680 715 683H724V637H707Q634 633 622 598L621 302V6L614 0H600Q585 0 582 3T481 150T282 443T171 605V345L172 86Q183 50 257 46H274V0H265Q250 3 150 3Q48 3 33 0H25V46H42Z" />
    <path
       id="MJX-52-TEX-N-32"
       d="M109 429Q82 429 66 447T50 491Q50 562 103 614T235 666Q326 666 387 610T449 465Q449 422 429 383T381 315T301 241Q265 210 201 149L142 93L218 92Q375 92 385 97Q392 99 409 186V189H449V186Q448 183 436 95T421 3V0H50V19V31Q50 38 56 46T86 81Q115 113 136 137Q145 147 170 174T204 211T233 244T261 278T284 308T305 340T320 369T333 401T340 431T343 464Q343 527 309 573T212 619Q179 619 154 602T119 569T109 550Q109 549 114 549Q132 549 151 535T170 489Q170 464 154 447T109 429Z" />
    <path
       id="MJX-52-TEX-N-2B"
       d="M56 237T56 250T70 270H369V420L370 570Q380 583 389 583Q402 583 409 568V270H707Q722 262 722 250T707 230H409V-68Q401 -82 391 -82H389H387Q375 -82 369 -68V230H70Q56 237 56 250Z" />
    <path
       id="MJX-52-TEX-N-33"
       d="M127 463Q100 463 85 480T69 524Q69 579 117 622T233 665Q268 665 277 664Q351 652 390 611T430 522Q430 470 396 421T302 350L299 348Q299 347 308 345T337 336T375 315Q457 262 457 175Q457 96 395 37T238 -22Q158 -22 100 21T42 130Q42 158 60 175T105 193Q133 193 151 175T169 130Q169 119 166 110T159 94T148 82T136 74T126 70T118 67L114 66Q165 21 238 21Q293 21 321 74Q338 107 338 175V195Q338 290 274 322Q259 328 213 329L171 330L168 332Q166 335 166 348Q166 366 174 366Q202 366 232 371Q266 376 294 413T322 525V533Q322 590 287 612Q265 626 240 626Q208 626 181 615T143 592T132 580H135Q138 579 143 578T153 573T165 566T175 555T183 540T186 520Q186 498 172 481T127 463Z" />
    <path
       id="MJX-52-TEX-N-48"
       d="M128 622Q121 629 117 631T101 634T58 637H25V683H36Q57 680 180 680Q315 680 324 683H335V637H302Q262 636 251 634T233 622L232 500V378H517V622Q510 629 506 631T490 634T447 637H414V683H425Q446 680 569 680Q704 680 713 683H724V637H691Q651 636 640 634T622 622V61Q628 51 639 49T691 46H724V0H713Q692 3 569 3Q434 3 425 0H414V46H447Q489 47 498 49T517 61V332H232V197L233 61Q239 51 250 49T302 46H335V0H324Q303 3 180 3Q45 3 36 0H25V46H58Q100 47 109 49T128 61V622Z" />
    <path
       id="MJX-52-TEX-N-21BD"
       d="M55 256Q56 264 62 270H929Q944 261 944 250T929 230H148Q149 229 165 215T196 185T231 145T270 87T303 16Q309 -1 306 -5Q304 -11 288 -11Q279 -11 276 -10T269 -4T264 10T253 36T231 75Q172 173 69 235Q59 242 57 245T55 256Z" />
    <path
       id="MJX-52-TEX-N-2212"
       d="M84 237T84 250T98 270H679Q694 262 694 250T679 230H98Q84 237 84 250Z" />
    <path
       id="MJX-52-TEX-N-21C0"
       d="M691 500Q691 511 711 511Q720 511 723 510T730 504T735 490T746 464T768 425Q796 378 835 339T897 285T933 263Q941 258 942 256T944 245T937 230H70Q56 237 56 250T70 270H852Q802 308 762 364T707 455T691 500Z" />
  </defs>
  <rect
     style="fill:#ffffff;fill-opacity:1;stroke-width:102.617"
     id="rect71"
     width="8869.1133"
     height="1049.9263"
     x="-0.71230567"
     y="-883" />
  <g
     stroke="currentColor"
     fill="currentColor"
     stroke-width="0"
     transform="matrix(1,0,0,-1,2.1377887e-7,-63.563632)"
     id="g71"
     style="display:inline">
    <g
       data-mml-node="math"
       id="g70">
      <g
         data-mml-node="TeXAtom"
         data-mjx-texclass="ORD"
         id="g69">
        <g
           data-mml-node="TeXAtom"
           data-mjx-texclass="ORD"
           id="g2">
          <g
             data-mml-node="mi"
             id="g1">
            <use
               data-c="4E"
               xlink:href="#MJX-52-TEX-N-4E"
               id="use1" />
          </g>
        </g>
        <g
           data-mml-node="msub"
           transform="translate(750)"
           id="g11">
          <g
             data-mml-node="TeXAtom"
             data-mjx-texclass="ORD"
             id="g6">
            <g
               data-mml-node="TeXAtom"
               data-mjx-texclass="ORD"
               id="g5">
              <g
                 data-mml-node="mpadded"
                 id="g4">
                <g
                   data-mml-node="mphantom"
                   id="g3" />
              </g>
            </g>
          </g>
          <g
             data-mml-node="TeXAtom"
             transform="matrix(0.707,0,0,0.707,33,-150)"
             data-mjx-texclass="ORD"
             id="g10">
            <g
               data-mml-node="TeXAtom"
               data-mjx-texclass="ORD"
               id="g9">
              <g
                 data-mml-node="mpadded"
                 id="g8">
                <g
                   data-mml-node="mn"
                   id="g7">
                  <use
                     data-c="32"
                     xlink:href="#MJX-52-TEX-N-32"
                     id="use6" />
                </g>
              </g>
            </g>
          </g>
        </g>
        <g
           data-mml-node="TeXAtom"
           data-mjx-texclass="ORD"
           transform="translate(1186.6)"
           id="g12" />
        <g
           data-mml-node="mo"
           transform="translate(1408.8)"
           id="g13">
          <use
             data-c="2B"
             xlink:href="#MJX-52-TEX-N-2B"
             id="use12" />
        </g>
        <g
           data-mml-node="TeXAtom"
           data-mjx-texclass="ORD"
           transform="translate(2409)"
           id="g14" />
        <g
           data-mml-node="mn"
           transform="translate(2409)"
           id="g15">
          <use
             data-c="33"
             xlink:href="#MJX-52-TEX-N-33"
             id="use14" />
        </g>
        <g
           data-mml-node="mstyle"
           transform="translate(2909)"
           id="g17">
          <g
             data-mml-node="mspace"
             id="g16" />
        </g>
        <g
           data-mml-node="TeXAtom"
           data-mjx-texclass="ORD"
           transform="translate(3076)"
           id="g19">
          <g
             data-mml-node="mi"
             id="g18">
            <use
               data-c="48"
               xlink:href="#MJX-52-TEX-N-48"
               id="use17" />
          </g>
        </g>
        <g
           data-mml-node="msub"
           transform="translate(3826)"
           id="g28">
          <g
             data-mml-node="TeXAtom"
             data-mjx-texclass="ORD"
             id="g23">
            <g
               data-mml-node="TeXAtom"
               data-mjx-texclass="ORD"
               id="g22">
              <g
                 data-mml-node="mpadded"
                 id="g21">
                <g
                   data-mml-node="mphantom"
                   id="g20" />
              </g>
            </g>
          </g>
          <g
             data-mml-node="TeXAtom"
             transform="matrix(0.707,0,0,0.707,33,-150)"
             data-mjx-texclass="ORD"
             id="g27">
            <g
               data-mml-node="TeXAtom"
               data-mjx-texclass="ORD"
               id="g26">
              <g
                 data-mml-node="mpadded"
                 id="g25">
                <g
                   data-mml-node="mn"
                   id="g24">
                  <use
                     data-c="32"
                     xlink:href="#MJX-52-TEX-N-32"
                     id="use23" />
                </g>
              </g>
            </g>
          </g>
        </g>
        <g
           data-mml-node="TeXAtom"
           data-mjx-texclass="ORD"
           transform="translate(4262.6)"
           id="g29" />
        <g
           data-mml-node="TeXAtom"
           data-mjx-texclass="REL"
           transform="translate(4540.3)"
           id="g53">
          <g
             data-mml-node="TeXAtom"
             data-mjx-texclass="REL"
             id="g52">
            <g
               data-mml-node="mover"
               id="g51">
              <g
                 data-mml-node="TeXAtom"
                 data-mjx-texclass="OP"
                 id="g40">
                <g
                   data-mml-node="TeXAtom"
                   data-mjx-texclass="ORD"
                   id="g39">
                  <g
                     data-mml-node="mpadded"
                     id="g38">
                    <g
                       data-mml-node="TeXAtom"
                       data-mjx-texclass="ORD"
                       id="g31">
                      <g
                         data-mml-node="mo"
                         id="g30">
                        <use
                           data-c="21BD"
                           xlink:href="#MJX-52-TEX-N-21BD"
                           id="use29" />
                      </g>
                    </g>
                    <g
                       data-mml-node="mstyle"
                       transform="translate(1000)"
                       id="g33">
                      <g
                         data-mml-node="mspace"
                         id="g32" />
                    </g>
                    <g
                       data-mml-node="mstyle"
                       transform="translate(833)"
                       id="g35">
                      <g
                         data-mml-node="mspace"
                         id="g34" />
                    </g>
                    <g
                       data-mml-node="TeXAtom"
                       data-mjx-texclass="ORD"
                       transform="translate(666)"
                       id="g37">
                      <g
                         data-mml-node="mo"
                         id="g36">
                        <use
                           data-c="2212"
                           xlink:href="#MJX-52-TEX-N-2212"
                           id="use35" />
                      </g>
                    </g>
                  </g>
                </g>
              </g>
              <g
                 data-mml-node="TeXAtom"
                 transform="matrix(0.707,0,0,0.707,0,200)"
                 data-mjx-texclass="ORD"
                 id="g50">
                <g
                   data-mml-node="mstyle"
                   transform="scale(1.414)"
                   id="g49">
                  <g
                     data-mml-node="TeXAtom"
                     data-mjx-texclass="ORD"
                     id="g42">
                    <g
                       data-mml-node="mo"
                       id="g41">
                      <use
                         data-c="2212"
                         xlink:href="#MJX-52-TEX-N-2212"
                         id="use40" />
                    </g>
                  </g>
                  <g
                     data-mml-node="mstyle"
                     transform="translate(778)"
                     id="g44">
                    <g
                       data-mml-node="mspace"
                       id="g43" />
                  </g>
                  <g
                     data-mml-node="mstyle"
                     transform="translate(611)"
                     id="g46">
                    <g
                       data-mml-node="mspace"
                       id="g45" />
                  </g>
                  <g
                     data-mml-node="TeXAtom"
                     data-mjx-texclass="ORD"
                     transform="translate(444)"
                     id="g48">
                    <g
                       data-mml-node="mo"
                       id="g47">
                      <use
                         data-c="21C0"
                         xlink:href="#MJX-52-TEX-N-21C0"
                         id="use46" />
                    </g>
                  </g>
                </g>
              </g>
            </g>
          </g>
        </g>
        <g
           data-mml-node="TeXAtom"
           data-mjx-texclass="ORD"
           transform="translate(6262.1)"
           id="g54" />
        <g
           data-mml-node="mn"
           transform="translate(6262.1)"
           id="g55">
          <use
             data-c="32"
             xlink:href="#MJX-52-TEX-N-32"
             id="use54" />
        </g>
        <g
           data-mml-node="mstyle"
           transform="translate(6762.1)"
           id="g57">
          <g
             data-mml-node="mspace"
             id="g56" />
        </g>
        <g
           data-mml-node="TeXAtom"
           data-mjx-texclass="ORD"
           transform="translate(6929.1)"
           id="g59">
          <g
             data-mml-node="mi"
             id="g58">
            <use
               data-c="4E"
               xlink:href="#MJX-52-TEX-N-4E"
               id="use57" />
            <use
               data-c="48"
               xlink:href="#MJX-52-TEX-N-48"
               transform="translate(750)"
               id="use58" />
          </g>
        </g>
        <g
           data-mml-node="msub"
           transform="translate(8429.1)"
           id="g68">
          <g
             data-mml-node="TeXAtom"
             data-mjx-texclass="ORD"
             id="g63">
            <g
               data-mml-node="TeXAtom"
               data-mjx-texclass="ORD"
               id="g62">
              <g
                 data-mml-node="mpadded"
                 id="g61">
                <g
                   data-mml-node="mphantom"
                   id="g60" />
              </g>
            </g>
          </g>
          <g
             data-mml-node="TeXAtom"
             transform="matrix(0.707,0,0,0.707,33,-150)"
             data-mjx-texclass="ORD"
             id="g67">
            <g
               data-mml-node="TeXAtom"
               data-mjx-texclass="ORD"
               id="g66">
              <g
                 data-mml-node="mpadded"
                 id="g65">
                <g
                   data-mml-node="mn"
                   id="g64">
                  <use
                     data-c="33"
                     xlink:href="#MJX-52-TEX-N-33"
                     id="use63" />
                </g>
              </g>
            </g>
          </g>
        </g>
      </g>
    </g>
  </g>
</svg>
